X:1
T:Rossetti, 8.10.10.4
T:William Jeater, 1907
T:Rossetti, 8.10.10.4
T:Public Domain
C:William Jeater, 1907
Z:Public Domain
%%score ( 1 2 ) ( 3 4 )
L:1/8
M:3/2
K:D
V:1 treble 
V:2 treble 
V:3 bass 
V:4 bass 
V:1
 [DA]2 [DG]2 [EG]2 | E4 D2 [DA]2 [DG]2 [EG]2 | E4 D2 [DF]2 [DF]2 [EA]2 | %3
 [Fd]3 [Ec] [DB]2 [CA]2 [DF]2 [E^G]2 | [EA]6 [Ec]2 [CB]2 [CA]2 | %5
 [DB]3 [DA] [DA]2 [GB]2 [FA]2 [EG]2 | E4 D8 | [DE]4 [DF]4 [CG]4 | [DF]8 |] %9
V:2
 x6 | F6 x6 | F6 x6 | x12 | x12 | x12 | F12 | x12 | x8 |] %9
V:3
 [F,A,]2 [E,B,]2 [A,,C]2 | [D,A,]6 [F,A,]2 [E,B,]2 [A,,C]2 | [D,A,]6 [D,A,]2 [D,A,]2 [C,A,]2 | %3
 [B,,A,]3 [B,,A,] [E,^G,]2 [E,A,]2 [E,B,]2 [E,D]2 | D4 C2 A,2 [G,A,]2 [G,A,]2 | %5
 [F,A,]3 [F,A,] [F,A,]2 [G,D]2 [A,C]2 [A,C]2 | [^A,C]4 z4 =A,4 | [G,B,]4 A,4 [A,,A,]4 | [D,A,]8 |] %9
V:4
 x6 | x12 | x12 | x12 | A,,6 x6 | x12 | x4 B,8 | x12 | x8 |] %9

